src/images/logo-vertical.svg

<?xml version="1.0" encoding="UTF-8" standalone="no"?>
<svg width="150px" height="96px" viewBox="0 0 150 96" version="1.1" xmlns="http://www.w3.org/2000/svg" xmlns:xlink="http://www.w3.org/1999/xlink">
    <!-- Generator: Sketch 50.2 (55047) - http://www.bohemiancoding.com/sketch -->
    <title>logo-vertical</title>
    <desc>Created with Sketch.</desc>
    <defs></defs>
    <g id="Page-1" stroke="none" stroke-width="1" fill="none" fill-rule="evenodd">
        <g id="logo-vertical">
            <path d="M14.0883117,95.030303 L9.6,87.6140606 L5.20519481,95.030303 L0.280519481,95.030303 L7.35584416,84.6972121 L0.779220779,74.550303 L5.85974026,74.550303 L10.0363636,81.6872727 L14.212987,74.550303 L18.8571429,74.550303 L12.2493506,84.5420606 L19.2311688,95.030303 L14.0883117,95.030303 Z M36.6233766,76.2724848 C37.9532534,77.4206118 38.6181818,79.0393431 38.6181818,81.1287273 C38.6181818,83.1560505 37.9532534,84.7385802 36.6233766,85.8763636 C35.2934998,87.0141471 33.4337782,87.5830303 31.0441558,87.5830303 L26.7116883,87.5830303 L26.7116883,95.030303 L22.4103896,95.030303 L22.4103896,74.550303 L31.0441558,74.550303 C33.4337782,74.550303 35.2934998,75.1243579 36.6233766,76.2724848 Z M33.3194805,83.4715152 C33.9428603,82.9439974 34.2545455,82.1527325 34.2545455,81.097697 C34.2545455,80.0426614 33.9428603,79.2565682 33.3194805,78.7393939 C32.6961008,78.2222196 31.7194872,77.9636364 30.3896104,77.9636364 L26.7116883,77.9636364 L26.7116883,84.2627879 L30.3896104,84.2627879 C31.7194872,84.2627879 32.6961008,83.9990329 33.3194805,83.4715152 Z M52.6207792,74.550303 L61.6285714,74.550303 C64.0805317,74.550303 65.9090849,75.0312679 67.1142857,75.9932121 C68.3194865,76.9551563 68.9220779,78.335991 68.9220779,80.1357576 C68.9220779,81.273541 68.5792242,82.2613291 67.8935065,83.0991515 C67.2077888,83.9369739 66.2415647,84.4593121 64.9948052,84.6661818 L64.9948052,84.6972121 C66.4077993,84.9040818 67.5038922,85.4367634 68.2831169,86.2952727 C69.0623416,87.1537821 69.4519481,88.1932868 69.4519481,89.4138182 C69.4519481,91.1928978 68.8077986,92.5737325 67.5194805,93.5563636 C66.2311624,94.5389948 64.3714407,95.030303 61.9402597,95.030303 L52.6207792,95.030303 L52.6207792,74.550303 Z M61.0363636,83.145697 C63.3220894,83.145697 64.4649351,82.2665138 64.4649351,80.5081212 C64.4649351,78.7497286 63.3220894,77.8705455 61.0363636,77.8705455 L56.7974026,77.8705455 L56.7974026,83.145697 L61.0363636,83.145697 Z M61.5662338,91.8031515 C62.7090966,91.8031515 63.5662309,91.5704266 64.1376623,91.1049697 C64.7090938,90.6395128 64.9948052,89.972368 64.9948052,89.1035152 C64.9948052,88.2346623 64.7090938,87.5726891 64.1376623,87.1175758 C63.5662309,86.6624624 62.7090966,86.4349091 61.5662338,86.4349091 L56.7974026,86.4349091 L56.7974026,91.8031515 L61.5662338,91.8031515 Z M82.4181818,87.3658182 L82.4181818,95.030303 L78.1168831,95.030303 L78.1168831,87.3658182 L70.8233766,74.550303 L75.4051948,74.550303 L78.7090909,80.6632727 L80.2675325,83.8904242 L81.8571429,80.6632727 L85.161039,74.550303 L89.7116883,74.550303 L82.4181818,87.3658182 Z M109.605195,77.9946667 L102.716883,77.9946667 L102.716883,95.030303 L98.4155844,95.030303 L98.4155844,77.9946667 L91.4961039,77.9946667 L91.4961039,74.550303 L109.605195,74.550303 L109.605195,77.9946667 Z M128.992208,91.5859394 L128.992208,95.030303 L113.127273,95.030303 L113.127273,74.550303 L128.555844,74.550303 L128.555844,77.9946667 L117.428571,77.9946667 L117.428571,83.0836364 L126.187013,83.0836364 L126.187013,86.3728485 L117.428571,86.3728485 L117.428571,91.5859394 L128.992208,91.5859394 Z M146.267532,75.1864242 C147.638968,75.8173769 148.844151,76.8155083 149.883117,78.1808485 L146.922078,81.0666667 C146.381815,79.9495702 145.66494,79.116932 144.771429,78.5687273 C143.877918,78.0205225 142.745461,77.7464242 141.374026,77.7464242 C140.127266,77.7464242 139.166237,77.9791492 138.490909,78.4446061 C137.815581,78.9100629 137.477922,79.5254911 137.477922,80.2909091 C137.477922,80.9942661 137.820776,81.552806 138.506494,81.9665455 C139.192211,82.3802849 140.428562,82.7423015 142.215584,83.0526061 C144.085724,83.4042846 145.571423,83.8387045 146.672727,84.3558788 C147.774031,84.8730531 148.579218,85.5195113 149.088312,86.2952727 C149.597405,87.0710342 149.851948,88.0381356 149.851948,89.1966061 C149.851948,90.4585114 149.49351,91.5497328 148.776623,92.470303 C148.059737,93.3908733 147.062344,94.0993915 145.784416,94.5958788 C144.506487,95.0923661 143.046761,95.3406061 141.405195,95.3406061 C139.140248,95.3406061 137.285722,95.0251345 135.841558,94.3941818 C134.397395,93.7632292 133.228576,92.8064711 132.335065,91.5238788 L134.890909,88.4829091 C135.659744,89.7448144 136.542852,90.6188259 137.54026,91.1049697 C138.537667,91.5911135 139.774019,91.8341818 141.249351,91.8341818 C142.579227,91.8341818 143.592204,91.6273152 144.288312,91.2135758 C144.984419,90.7998363 145.332468,90.2102665 145.332468,89.4448485 C145.332468,88.8863002 145.005198,88.4208503 144.350649,88.0484848 C143.696101,87.6761194 142.527281,87.3244461 140.844156,86.9934545 C138.911679,86.6004021 137.368837,86.1349522 136.215584,85.5970909 C135.062332,85.0592296 134.225977,84.3972565 133.706494,83.6111515 C133.18701,82.8250466 132.927273,81.8527735 132.927273,80.694303 C132.927273,79.4737717 133.259737,78.3722069 133.924675,77.3895758 C134.589614,76.4069446 135.561033,75.6363664 136.838961,75.0778182 C138.11689,74.5192699 139.618173,74.24 141.342857,74.24 C143.254555,74.24 144.896097,74.5554716 146.267532,75.1864242 Z" id="xpbytes" fill="#000000"></path>
            <g id="logo" transform="translate(52.597403, 0.000000)">
                <path d="M22.4025974,-0.000165171606 C39.2857143,0.0670241948 47.7272727,4.59234831 47.7272727,13.5758072 C47.7272727,22.559266 39.2857143,27.084447 22.4025974,27.15135 L22.4025974,-0.000165171606 Z" id="Path-6" fill="#835AF6"></path>
                <polygon id="Path-7" fill="#02E0F3" points="22.4025974 19.7752824 28.2467532 13.5757576 22.4025974 0"></polygon>
                <polygon id="Rectangle-4" fill="#FE3E80" transform="translate(18.506494, 30.545455) scale(-1, 1) translate(-18.506494, -30.545455) " points="8.76623377 13.5757576 28.2467532 30.5454545 8.76623377 47.5151515"></polygon>
                <polygon id="Path-8" fill="#BC00D2" points="13.6358298 34.7861709 19.4830962 30.5454545 19.4830962 39.8836411"></polygon>
                <polygon id="Rectangle-4" fill="#FFC654" points="0 13.5757576 19.4805195 30.5454545 0 47.5151515"></polygon>
            </g>
        </g>
    </g>
</svg>

<?xml version="1.0" encoding="UTF-8"?>
<svg version="1.1" viewBox="0 0 150 96" xmlns="http://www.w3.org/2000/svg">
<title>XP Bytes logo vertical (colour)</title>
<desc>eXPerienced Bytes logo in colour</desc>
<g fill="none" fill-rule="evenodd">
<path d="m14.088 95.03l-4.4883-7.4162-4.3948 7.4162h-4.9247l7.0753-10.333-6.5766-10.147h5.0805l4.1766 7.137 4.1766-7.137h4.6442l-6.6078 9.9918 6.9818 10.488h-5.1429zm22.535-18.758c1.3299 1.1481 1.9948 2.7669 1.9948 4.8562 0 2.0273-0.66493 3.6099-1.9948 4.7476-1.3299 1.1378-3.1896 1.7067-5.5792 1.7067h-4.3325v7.4473h-4.3013v-20.48h8.6338c2.3896 0 4.2493 0.57405 5.5792 1.7222zm-3.3039 7.199c0.62338-0.52752 0.93506-1.3188 0.93506-2.3738 0-1.055-0.31169-1.8411-0.93506-2.3583-0.62338-0.51717-1.6-0.77576-2.9299-0.77576h-3.6779v6.2992h3.6779c1.3299 0 2.3065-0.26376 2.9299-0.79127zm19.301-8.9212h9.0078c2.452 0 4.2805 0.48096 5.4857 1.4429s1.8078 2.3428 1.8078 4.1425c0 1.1378-0.34285 2.1256-1.0286 2.9634s-1.6519 1.3602-2.8987 1.567v0.03103c1.413 0.20687 2.5091 0.73955 3.2883 1.5981 0.77922 0.85851 1.1688 1.898 1.1688 3.1185 0 1.7791-0.64415 3.1599-1.9325 4.1425-1.2883 0.98263-3.148 1.4739-5.5792 1.4739h-9.3195v-20.48zm8.4156 8.5954c2.2857 0 3.4286-0.87918 3.4286-2.6376s-1.1428-2.6376-3.4286-2.6376h-4.239v5.2752h4.239zm0.52987 8.6575c1.1429 0 2-0.23272 2.5714-0.69818 0.57143-0.46546 0.85714-1.1326 0.85714-2.0015 0-0.86885-0.28571-1.5308-0.85714-1.9859-0.57143-0.45511-1.4286-0.68267-2.5714-0.68267h-4.7688v5.3682h4.7688zm20.852-4.4373v7.6645h-4.3013v-7.6645l-7.2935-12.816h4.5818l3.3039 6.113 1.5584 3.2272 1.5896-3.2272 3.3039-6.113h4.5506l-7.2935 12.816zm27.187-9.3712h-6.8883v17.036h-4.3013v-17.036h-6.9195v-3.4444h18.109v3.4444zm19.387 13.591v3.4444h-15.865v-20.48h15.429v3.4444h-11.127v5.089h8.7584v3.2892h-8.7584v5.2131h11.564zm17.275-16.4c1.3714 0.63095 2.5766 1.6291 3.6156 2.9944l-2.961 2.8858c-0.54026-1.1171-1.2571-1.9497-2.1506-2.4979-0.89351-0.5482-2.026-0.8223-3.3974-0.8223-1.2468 0-2.2078 0.23272-2.8831 0.69818-0.67533 0.46546-1.013 1.0809-1.013 1.8463 0 0.70336 0.34285 1.2619 1.0286 1.6756 0.68572 0.41374 1.9221 0.77576 3.7091 1.0861 1.8701 0.35168 3.3558 0.7861 4.4571 1.3033s1.9065 1.1636 2.4156 1.9394c0.50909 0.77576 0.76364 1.7429 0.76364 2.9013 0 1.2619-0.35844 2.3531-1.0753 3.2737-0.71689 0.92057-1.7143 1.6291-2.9922 2.1256-1.2779 0.49649-2.7377 0.74473-4.3792 0.74473-2.2649 0-4.1195-0.31547-5.5636-0.94642-1.4442-0.63095-2.613-1.5877-3.5065-2.8703l2.5558-3.041c0.76884 1.2619 1.6519 2.1359 2.6494 2.6221 0.99741 0.48614 2.2338 0.72921 3.7091 0.72921 1.3299 0 2.3429-0.20687 3.039-0.62061 0.69611-0.41374 1.0442-1.0033 1.0442-1.7687 0-0.55855-0.32727-1.024-0.98182-1.3964-0.65455-0.37237-1.8234-0.72404-3.5065-1.055-1.9325-0.39305-3.4753-0.8585-4.6286-1.3964-1.1533-0.53786-1.9896-1.1998-2.5091-1.9859-0.51948-0.7861-0.77922-1.7584-0.77922-2.9168 0-1.2205 0.33246-2.3221 0.9974-3.3047 0.66494-0.98263 1.6364-1.7532 2.9143-2.3118 1.2779-0.55855 2.7792-0.83782 4.5039-0.83782 1.9117 0 3.5532 0.31547 4.9247 0.94642z" fill="#000"/>
<g transform="translate(52.597)">
<path d="m22.403-1.6517e-4c16.883 0.067189 25.325 4.5925 25.325 13.576 0 8.9835-8.4416 13.509-25.325 13.576v-27.152z" fill="#835AF6"/>
<polygon points="22.403 19.775 28.247 13.576 22.403 0" fill="#02E0F3"/>
<polygon transform="translate(18.506 30.545) scale(-1 1) translate(-18.506 -30.545)" points="8.7662 13.576 28.247 30.545 8.7662 47.515" fill="#FE3E80"/>
<polygon points="13.636 34.786 19.483 30.545 19.483 39.884" fill="#BC00D2"/>
<polygon points="0 13.576 19.481 30.545 0 47.515" fill="#FFC654"/>
</g>
</g>
</svg>
